X: 85
M: 6/8
L: 1/8
K: D
dcd fga | ABA ABc | dfb afd | e3- e2A |\
dcd fga | ABA A2b | agf edc | d3- d2 H:|
e/d/ |\
cde efe | A3- A2e/d/ | cde ef^g | a3- a2=g |\
f2e d2c | B2c d2e | fgf edc | B3- B2 :|
dd/d/d faf | d3- d2A | dfb agf | e3- e2f |\
gfg abc' | d'3 d'c'b | aba gfe | d3- "_D.C."d2 |]

